img/i/web-page-1.svg

<svg enable-background="new 0 0 512 512" viewBox="0 0 512 512" xmlns="http://www.w3.org/2000/svg"><path d="m499.808 128.943v325.889h-487.615v-325.889l243.808-36.595z" fill="#ebedec"/><path d="m418.853 57.168h80.96v71.775h-80.96z" fill="#ee3840"/><path d="m12.193 55.948h406.654v71.775h-406.654z" fill="#4c5870"/><g fill="#11113f"><path d="m162.534 275.376h181.755c6.737 0 12.198-5.461 12.198-12.198s-5.461-12.198-12.198-12.198h-181.755c-6.737 0-12.198 5.461-12.198 12.198-.001 6.737 5.461 12.198 12.198 12.198z"/><path d="m176.204 308.404h-59.114c-6.737 0-12.198 5.461-12.198 12.198s5.461 12.198 12.198 12.198h59.114c6.737 0 12.198-5.461 12.198-12.198.001-6.737-5.461-12.198-12.198-12.198z"/><path d="m285.557 308.404h-59.114c-6.737 0-12.198 5.461-12.198 12.198s5.461 12.198 12.198 12.198h59.114c6.737 0 12.198-5.461 12.198-12.198s-5.461-12.198-12.198-12.198z"/><path d="m394.911 308.404h-59.114c-6.737 0-12.198 5.461-12.198 12.198s5.461 12.198 12.198 12.198h59.114c6.737 0 12.198-5.461 12.198-12.198s-5.461-12.198-12.198-12.198z"/><path d="m499.802 44.97h-487.604c-6.737 0-12.198 5.461-12.198 12.198v397.664c0 6.737 5.461 12.198 12.198 12.198h487.603c6.737 0 12.198-5.461 12.198-12.198v-397.664c.001-6.737-5.46-12.198-12.197-12.198zm-12.199 71.779h-56.552v-47.383h56.554v47.383zm-80.949-47.383v47.383h-382.257v-47.383zm-382.257 373.268v-301.488h463.207v301.487h-463.207z"/></g></svg>

<?xml version="1.0" encoding="iso-8859-1"?>
<!-- Generator: Adobe Illustrator 19.0.0, SVG Export Plug-In . SVG Version: 6.00 Build 0)  -->
<svg version="1.1" id="Layer_1" xmlns="http://www.w3.org/2000/svg" xmlns:xlink="http://www.w3.org/1999/xlink" x="0px" y="0px"
	 viewBox="0 0 512 512" style="enable-background:new 0 0 512 512;" xml:space="preserve">
<polygon style="fill:#EBEDEC;" points="499.808,128.943 499.808,454.832 12.193,454.832 12.193,128.943 256.001,92.348 "/>
<rect x="418.853" y="57.168" style="fill:#EE3840;" width="80.96" height="71.775"/>
<rect x="12.193" y="55.948" style="fill:#4C5870;" width="406.654" height="71.775"/>
<g>
	<path style="fill:#11113F;" d="M162.534,275.376h181.755c6.737,0,12.198-5.461,12.198-12.198c0-6.737-5.461-12.198-12.198-12.198
		H162.534c-6.737,0-12.198,5.461-12.198,12.198C150.335,269.915,155.797,275.376,162.534,275.376z"/>
	<path style="fill:#11113F;" d="M176.204,308.404H117.09c-6.737,0-12.198,5.461-12.198,12.198c0,6.737,5.461,12.198,12.198,12.198
		h59.114c6.737,0,12.198-5.461,12.198-12.198C188.403,313.865,182.941,308.404,176.204,308.404z"/>
	<path style="fill:#11113F;" d="M285.557,308.404h-59.114c-6.737,0-12.198,5.461-12.198,12.198c0,6.737,5.461,12.198,12.198,12.198
		h59.114c6.737,0,12.198-5.461,12.198-12.198C297.755,313.865,292.294,308.404,285.557,308.404z"/>
	<path style="fill:#11113F;" d="M394.911,308.404h-59.114c-6.737,0-12.198,5.461-12.198,12.198c0,6.737,5.461,12.198,12.198,12.198
		h59.114c6.737,0,12.198-5.461,12.198-12.198C407.109,313.865,401.648,308.404,394.911,308.404z"/>
	<path style="fill:#11113F;" d="M499.802,44.97H12.198C5.461,44.97,0,50.431,0,57.168v397.664c0,6.737,5.461,12.198,12.198,12.198
		h487.603c6.737,0,12.198-5.461,12.198-12.198V57.168C512,50.431,506.539,44.97,499.802,44.97z M487.603,116.749h-56.552V69.366
		h56.554v47.383H487.603z M406.654,69.366v47.383H24.397V69.366H406.654z M24.397,442.634V141.146h463.207v301.487H24.397V442.634z"
		/>
</g>
<g>
</g>
<g>
</g>
<g>
</g>
<g>
</g>
<g>
</g>
<g>
</g>
<g>
</g>
<g>
</g>
<g>
</g>
<g>
</g>
<g>
</g>
<g>
</g>
<g>
</g>
<g>
</g>
<g>
</g>
</svg>
